svg/u1f50f.svg

<svg viewBox="0 0 128 128" xmlns="http://www.w3.org/2000/svg">
  <defs/>
  <path d="M115.3,62.7 L115.29,62.7 C115.17,60.25 112.57,57.96 108.08,56.61 C98.47,53.72 87.81,52.03 75.65,51.93 C63.5,52.03 52.84,53.72 43.22,56.61 C38.73,57.96 36.15,60.25 36.02,62.7 L36,62.7 L36,63.02 C36,63.04 36,63.05 36,63.07 L36,112.78 C36,115.57 39.02,118.58 46.26,120.63 C53.74,122.75 63.86,124.12 75.64,124.12 C87.42,124.12 97.54,122.75 105.02,120.63 C112.61,118.48 115.41,115.31 115.29,112.38 L115.29,112.38 L115.29,62.7 Z" fill="#E2A610"/>
  <path d="M83.55,108.24 L79.06,97.66 C81.62,96.42 83.39,93.8 83.39,90.76 C83.39,86.52 79.95,83.09 75.72,83.09 C71.49,83.09 68.05,86.53 68.05,90.76 C68.05,93.61 69.61,96.09 71.92,97.42 L67.74,108.31 C67.21,109.69 68.23,111.16 69.7,111.16 L81.62,111.16 C83.12,111.16 84.14,109.62 83.55,108.24 Z" fill="#4E342E"/>
  <path d="M83.13,107.25 L68.14,107.25 L67.74,108.3 C67.21,109.68 68.23,111.15 69.7,111.15 L81.62,111.15 C83.13,111.15 84.14,109.61 83.55,108.23 L83.13,107.25 Z" fill="#9E740B"/>
  <path d="M72.6,95.4 C72.78,94.88 72.59,94.32 72.15,94 C71.55,93.56 70.74,92.78 70.23,91.54 C68.37,87.06 70.58,85.07 70.58,85.07 C69.02,86.47 68.04,88.5 68.04,90.76 C68.04,93.61 69.6,96.09 71.91,97.42 L72.6,95.4 Z" fill="#9E740B"/>
  <path d="M81.11,85.3 C81.11,85.3 83.31,89.72 80.79,92.55 C79.93,93.51 79.2,94.02 78.66,94.27 C78.13,94.52 77.89,95.15 78.14,95.68 L79.07,97.64 C81.63,96.4 83.4,93.78 83.4,90.74 C83.39,87.49 81.11,85.3 81.11,85.3 Z" fill="#9E740B"/>
  <path d="M106.4,55.95 C97.28,53.31 87.18,51.76 75.66,51.67 C64.14,51.76 54.03,53.31 44.92,55.95 C35.79,58.6 34.88,65.21 47.81,68.75 C54.9,70.69 64.5,71.94 75.66,71.94 C86.82,71.94 96.42,70.69 103.51,68.75 C116.44,65.21 115.53,58.59 106.4,55.95 Z" fill="#FDD835"/>
  <path d="M75.65,10.89 C60.13,10.89 47.5,24.02 47.5,40.15 L47.5,62.21 C47.5,62.21 48.8,63.93 52.64,63.93 C56.48,63.93 58.59,62.21 58.59,62.21 L58.59,40.16 C58.59,30.14 66.24,22 75.65,22 C77.03,22 78.36,22.19 79.64,22.52 L79.64,11.19 C78.34,11 77.01,10.89 75.65,10.89 Z" fill="#84B0C1"/>
  <path d="M75.65,9.911 Q77.659,9.911 79.782,10.221 L80.619,10.344 L80.619,23.784 L79.396,23.468 Q77.499,22.979 75.65,22.979 Q69.016,22.979 64.305,27.993 Q59.569,33.033 59.569,40.16 L59.569,62.675 L59.209,62.969 Q56.829,64.909 52.64,64.909 Q48.313,64.909 46.719,62.8 L46.521,62.538 L46.521,40.15 Q46.521,27.658 55.049,18.792 Q63.594,9.911 75.65,9.911 Z M75.65,11.869 Q64.427,11.869 56.461,20.15 Q48.479,28.447 48.479,40.15 L48.479,61.846 Q49.586,62.951 52.64,62.951 Q55.803,62.951 57.611,61.72 L57.611,40.16 Q57.611,32.258 62.878,26.652 Q68.168,21.021 75.65,21.021 Q77.145,21.021 78.661,21.301 L78.661,12.049 Q77.119,11.869 75.65,11.869 Z" fill="#84B0C1"/>
  <path d="M61.49,16.3 C56.74,19.33 54.85,23.27 54.06,25.35 C53.14,27.79 54.55,28.35 55.61,27.64 C57.05,26.69 57.83,24.62 62.97,21.56 C68.45,18.29 75.99,18.84 76.32,15.31 C76.68,11.32 69.65,11.08 61.49,16.3 Z" fill="#B9E4EA"/>
  <path d="M8.16,121.64 C8.35,120.5 9.15,119.57 9.74,118.43 C10.4,117.13 11.02,115.81 11.41,114.4 C12.02,112.2 12.1,109.88 12.64,107.66 C13.36,104.7 15.86,101.49 19.44,99.79 C25.02,97.15 27.61,94.18 29.25,92.71 L38.36,101.39 C36.56,103.64 34.43,106.34 33.33,108.45 C32.78,109.51 31.6,112.91 29.43,115.01 C27.61,116.77 25.31,118.01 22.84,118.55 C21.87,118.76 20.88,118.87 19.91,119.09 C17.51,119.64 15.31,120.88 13.36,122.39 C12.57,123 11.65,123.91 10.61,124 C10.21,124.03 9.78,124 9.47,123.72 C9.18,123.47 9.19,123 9.19,123 C9.19,123 8.71,123.27 8.3,122.85 C7.99,122.53 8.09,122.05 8.16,121.64 Z" fill="#84B0C1"/>
  <path d="M103.31,11.7 C102.34,10.89 100.64,9.42 100.64,9.42 C99.68,8.62 98.44,8.24 97.16,8.35 C95.88,8.46 94.88,8.95 93.95,9.99 C90.33,13.72 86.71,17.45 83.09,21.18 C78.16,26.26 66.2,38.62 65.42,39.68 C64.63,40.73 65.19,41.29 65.29,41.4 C66.55,42.72 68.77,42.85 70.35,41.93 C71.93,41.01 72.89,39.24 73.14,37.43 C73.3,36.25 73.36,35.67 74.21,34.87 C74.51,34.58 95.09,14.08 95.09,14.08 C95.58,13.61 96.67,12.78 98.22,14.1 C98.45,14.29 103.03,18.28 103.03,18.28 L106.18,14.51 L106.16,14.3 C106.13,14.05 106.13,14.05 103.31,11.7 Z" fill="#FFC107"/>
  <path d="M100.62,14.28 C100.02,13.4 98.58,12.17 97.6,11.77 C96.48,11.31 95.67,11.81 94.98,12.45 C93.76,13.58 85.7,22.41 83.94,24.72 C83.74,24.98 83.54,25.28 83.54,25.6 C88.16,20.98 92.86,16.41 94.36,15.04 C95.51,13.99 96.42,13.2 97.56,13.96 C97.67,14.03 98.31,14.55 99.5,15.49 L100.62,14.28 Z" fill="#D89A00"/>
  <path d="M24.45,94.55 C26.79,91.36 36.15,80.42 62.37,52.35 L62.35,52.33 L62.54,50.14 C85.16,25.14 104.88,10.62 106.48,9.39 C108.09,8.17 111.67,9.81 114.32,12.23 C116.97,14.65 118.67,18.23 117.57,19.91 C116.47,21.59 102.85,42.15 79.18,66.16 L77.08,66.18 C50.39,93.89 39.93,103.47 36.87,105.98 C36.31,106.43 35.51,106.41 34.99,105.91 L24.61,96.43 C24.1,95.93 24.03,95.13 24.45,94.55 Z" fill="#424242"/>
  <path d="M113.25,26.89 C112.76,26.95 112.58,26.53 112.31,26.15 C109.12,21.82 105.25,17.86 100.61,15.08 C100.4,14.96 100.19,14.85 100.17,14.33 C100.16,13.8 101.66,12.42 102.82,11.81 C103.44,11.48 104.66,11.78 105.41,12.37 C108.95,14.88 111.77,18.05 114.5,21.41 C115.19,22.27 116.05,23 115.63,24.17 C115.2,25.26 114.44,26.54 113.25,26.89 Z" fill="#FFC107"/>
  <path d="M103.21,12.96 C102.71,12.98 101.98,13.35 101.96,13.85 C101.95,14.36 102.25,14.62 102.93,14.88 C104.43,15.45 105.09,16.14 106.49,17.61 C106.92,18.06 108.16,17.93 107.95,16.72 C107.77,15.64 107.32,15.14 106.69,14.47 C105.55,13.25 104.26,12.92 103.21,12.96 Z" fill="#FFEE58"/>
  <path d="M81.94,39.69 C78.04,43.41 73.19,47.46 72.41,46.69 C71.65,45.94 75.52,41.31 77.4,39.22 C78.88,37.57 84.23,30.94 86.28,32.73 C88.08,34.31 84.11,37.62 81.94,39.69 Z" fill="#757575"/>
  <path d="M45.47,73.93 C43.63,76.2 39.39,81.32 39.93,81.84 C40.47,82.36 42.71,80.77 43.47,80.16 C49.57,75.33 55.12,69.8 59.98,63.73 C61.07,62.37 62.17,60.82 62.05,59.08 C62.02,58.62 61.8,58.07 61.34,58.02 C59.21,57.74 54.89,63.38 53.65,64.67 C50.79,67.63 48.06,70.72 45.47,73.93 Z" fill="#757575"/>
  <path d="M82.39,62.9 C78.3,56.19 72.05,50.07 65.76,46.64 C65.76,46.64 65.25,46.75 64.92,47.16 C64.59,47.57 64.46,48.04 64.46,48.04 C70.75,51.35 77.06,57.5 81.06,64.28 C81.06,64.28 81.43,64.16 81.89,63.71 C82.35,63.26 82.39,62.9 82.39,62.9 Z" fill="#FFC107"/>
  <path d="M79.34,66.15 C75.25,59.54 68.89,53.54 62.69,50.13 C62.69,50.13 62.35,50.55 62.24,51.33 C62.14,52.12 62.34,52.62 62.34,52.62 C67.83,55.84 73.01,60.63 76.76,66.48 C76.76,66.48 77.52,66.79 78.16,66.67 C78.81,66.55 79.34,66.15 79.34,66.15 Z" fill="#212121"/>
  <path d="M10.37,122.41 C9.45,123.17 9.27,123.34 9.07,123.21 C8.87,123.08 9.15,122.67 10.44,121 C11.73,119.33 19.96,110.95 19.96,110.95 L20.81,111.66 C20.81,111.66 11.8,121.21 10.37,122.41 Z"/>
  <path d="M22.63,110.5 A1.65 1.65 0 1 1 19.33,110.5 A1.65 1.65 0 1 1 22.63,110.5 Z"/>
  <path d="M38.04,104.99 C36.66,103.13 34.57,100.56 31.94,98.03 C29.57,95.75 27.23,94.26 25.4,93.33 C25.01,93.82 24.69,94.23 24.46,94.56 C24.04,95.14 24.11,95.94 24.63,96.43 L35,105.91 C35.52,106.4 36.32,106.43 36.88,105.98 C37.19,105.72 37.57,105.4 38.04,104.99 Z" fill="#FFC107"/>
  <path d="M30.08,97.06 C31.11,97.98 32.85,100.22 32.18,101.35 C31.77,102.05 30.94,101.68 30.28,100.94 C29.82,100.43 28.97,99.6 28.47,99.13 C27.28,97.99 24.8,96.81 25.65,95.94 C26.64,94.93 29.25,96.31 30.08,97.06 Z" fill="#FFEE58"/>
  <path d="M14.48,107.11 C15.08,105.5 16.06,104 17.44,102.98 C18.12,102.48 18.94,102.09 19.78,102.16 C20.62,102.23 21.51,102.91 21.46,103.75 C21.36,105.37 19.53,106.59 18.96,107.25 C16.46,110.13 15.76,113.64 13.78,114.52 C13.19,114.78 12.83,114.11 13.14,113.4 C13.89,111.7 13.88,108.72 14.48,107.11 Z" fill="#A8E3F0"/>
  <path d="M78.04,11.01 L78.04,22.19 C86.32,23.43 92.71,31 92.71,40.16 L92.71,62.22 C92.71,62.22 93.75,63.94 98.59,63.94 C103.44,63.94 103.81,62.22 103.81,62.22 L103.81,40.16 C103.81,24.86 92.45,12.27 78.04,11.01 Z" fill="#84B0C1"/>
  <path d="M77.061,9.941 L78.125,10.035 Q89.364,11.017 97.06,19.669 Q104.789,28.358 104.789,40.16 L104.789,62.324 L104.767,62.426 Q104.231,64.919 98.59,64.919 Q93.198,64.919 91.872,62.727 L91.731,62.493 L91.731,40.16 Q91.731,33.686 87.725,28.828 Q83.776,24.039 77.895,23.158 L77.061,23.033 L77.061,9.941 Z M79.019,12.098 L79.019,21.366 Q85.09,22.555 89.235,27.582 Q93.689,32.983 93.689,40.16 L93.689,61.903 Q94.641,62.961 98.59,62.961 Q101.344,62.961 102.506,62.246 Q102.765,62.086 102.831,62.035 L102.831,40.16 Q102.831,29.103 95.597,20.971 Q88.786,13.314 79.019,12.098 Z" fill="#84B0C1"/>
</svg>

<svg viewBox="0 0 128 128" xmlns="http://www.w3.org/2000/svg">
  <path d="M115.3,62.7h-0.01c-0.12-2.45-2.72-4.74-7.21-6.09c-9.61-2.89-20.27-4.58-32.43-4.68 c-12.15,0.1-22.81,1.79-32.43,4.68c-4.49,1.35-7.07,3.64-7.2,6.09h-0.02v0.32c0,0.02,0,0.03,0,0.05v49.71 c0,2.79,3.02,5.8,10.26,7.85c7.48,2.12,17.6,3.49,29.38,3.49s21.9-1.37,29.38-3.49c7.59-2.15,10.39-5.32,10.27-8.25l0,0V62.7z" fill="#E2A610"/>
  <g>
    <path d="M83.55,108.24l-4.49-10.58c2.56-1.24,4.33-3.86,4.33-6.9c0-4.24-3.44-7.67-7.67-7.67 s-7.67,3.44-7.67,7.67c0,2.85,1.56,5.33,3.87,6.66l-4.18,10.89c-0.53,1.38,0.49,2.85,1.96,2.85h11.92 C83.12,111.16,84.14,109.62,83.55,108.24z" fill="#4E342E"/>
    <path d="M83.13,107.25H68.14l-0.4,1.05c-0.53,1.38,0.49,2.85,1.96,2.85h11.92c1.51,0,2.52-1.54,1.93-2.92 L83.13,107.25z" fill="#9E740B"/>
    <path d="M72.6,95.4c0.18-0.52-0.01-1.08-0.45-1.4c-0.6-0.44-1.41-1.22-1.92-2.46 c-1.86-4.48,0.35-6.47,0.35-6.47c-1.56,1.4-2.54,3.43-2.54,5.69c0,2.85,1.56,5.33,3.87,6.66L72.6,95.4z" fill="#9E740B"/>
    <path d="M81.11,85.3c0,0,2.2,4.42-0.32,7.25c-0.86,0.96-1.59,1.47-2.13,1.72c-0.53,0.25-0.77,0.88-0.52,1.41 l0.93,1.96c2.56-1.24,4.33-3.86,4.33-6.9C83.39,87.49,81.11,85.3,81.11,85.3z" fill="#9E740B"/>
  </g>
  <path d="M106.4,55.95c-9.12-2.64-19.22-4.19-30.74-4.28c-11.52,0.09-21.63,1.64-30.74,4.28 c-9.13,2.65-10.04,9.26,2.89,12.8c7.09,1.94,16.69,3.19,27.85,3.19s20.76-1.25,27.85-3.19C116.44,65.21,115.53,58.59,106.4,55.95z" fill="#FDD835"/>
  <g>
    <path d="M75.65,10.89 c-15.52,0-28.15,13.13-28.15,29.26v22.06c0,0,1.3,1.72,5.14,1.72c3.84,0,5.95-1.72,5.95-1.72V40.16c0-10.02,7.65-18.16,17.06-18.16 c1.38,0,2.71,0.19,3.99,0.52V11.19C78.34,11,77.01,10.89,75.65,10.89z" fill="#84B0C1" stroke="#84B0C1" stroke-width="1.9584" stroke-miterlimit="10"/>
    <path d="M61.49,16.3c-4.75,3.03-6.64,6.97-7.43,9.05c-0.92,2.44,0.49,3,1.55,2.29 c1.44-0.95,2.22-3.02,7.36-6.08c5.48-3.27,13.02-2.72,13.35-6.25C76.68,11.32,69.65,11.08,61.49,16.3z" fill="#B9E4EA"/>
  </g>
  <g>
    <path d="M8.16,121.64c0.19-1.14,0.99-2.07,1.58-3.21c0.66-1.3,1.28-2.62,1.67-4.03 c0.61-2.2,0.69-4.52,1.23-6.74c0.72-2.96,3.22-6.17,6.8-7.87c5.58-2.64,8.17-5.61,9.81-7.08l9.11,8.68 c-1.8,2.25-3.93,4.95-5.03,7.06c-0.55,1.06-1.73,4.46-3.9,6.56c-1.82,1.76-4.12,3-6.59,3.54c-0.97,0.21-1.96,0.32-2.93,0.54 c-2.4,0.55-4.6,1.79-6.55,3.3c-0.79,0.61-1.71,1.52-2.75,1.61c-0.4,0.03-0.83,0-1.14-0.28C9.18,123.47,9.19,123,9.19,123 s-0.48,0.27-0.89-0.15C7.99,122.53,8.09,122.05,8.16,121.64z" fill="#84B0C1"/>
    <path d="M103.31,11.7c-0.97-0.81-2.67-2.28-2.67-2.28c-0.96-0.8-2.2-1.18-3.48-1.07s-2.28,0.6-3.21,1.64 c-3.62,3.73-7.24,7.46-10.86,11.19c-4.93,5.08-16.89,17.44-17.67,18.5c-0.79,1.05-0.23,1.61-0.13,1.72 c1.26,1.32,3.48,1.45,5.06,0.53c1.58-0.92,2.54-2.69,2.79-4.5c0.16-1.18,0.22-1.76,1.07-2.56c0.3-0.29,20.88-20.79,20.88-20.79 c0.49-0.47,1.58-1.3,3.13,0.02c0.23,0.19,4.81,4.18,4.81,4.18l3.15-3.77l-0.02-0.21C106.13,14.05,106.13,14.05,103.31,11.7z" fill="#FFC107"/>
    <path d="M100.62,14.28c-0.6-0.88-2.04-2.11-3.02-2.51c-1.12-0.46-1.93,0.04-2.62,0.68 c-1.22,1.13-9.28,9.96-11.04,12.27c-0.2,0.26-0.4,0.56-0.4,0.88c4.62-4.62,9.32-9.19,10.82-10.56c1.15-1.05,2.06-1.84,3.2-1.08 c0.11,0.07,0.75,0.59,1.94,1.53L100.62,14.28z" fill="#D89A00"/>
    <path d="M24.45,94.55c2.34-3.19,11.7-14.13,37.92-42.2l-0.02-0.02l0.19-2.19 c22.62-25,42.34-39.52,43.94-40.75c1.61-1.22,5.19,0.42,7.84,2.84c2.65,2.42,4.35,6,3.25,7.68c-1.1,1.68-14.72,22.24-38.39,46.25 l-2.1,0.02c-26.69,27.71-37.15,37.29-40.21,39.8c-0.56,0.45-1.36,0.43-1.88-0.07l-10.38-9.48C24.1,95.93,24.03,95.13,24.45,94.55z" fill="#424242"/>
    <path d="M113.25,26.89c-0.49,0.06-0.67-0.36-0.94-0.74c-3.19-4.33-7.06-8.29-11.7-11.07 c-0.21-0.12-0.42-0.23-0.44-0.75c-0.01-0.53,1.49-1.91,2.65-2.52c0.62-0.33,1.84-0.03,2.59,0.56c3.54,2.51,6.36,5.68,9.09,9.04 c0.69,0.86,1.55,1.59,1.13,2.76C115.2,25.26,114.44,26.54,113.25,26.89z" fill="#FFC107"/>
    <path d="M103.21,12.96c-0.5,0.02-1.23,0.39-1.25,0.89c-0.01,0.51,0.29,0.77,0.97,1.03 c1.5,0.57,2.16,1.26,3.56,2.73c0.43,0.45,1.67,0.32,1.46-0.89c-0.18-1.08-0.63-1.58-1.26-2.25 C105.55,13.25,104.26,12.92,103.21,12.96z" fill="#FFEE58"/>
    <path d="M81.94,39.69c-3.9,3.72-8.75,7.77-9.53,7c-0.76-0.75,3.11-5.38,4.99-7.47 c1.48-1.65,6.83-8.28,8.88-6.49C88.08,34.31,84.11,37.62,81.94,39.69z" fill="#757575"/>
    <path d="M45.47,73.93c-1.84,2.27-6.08,7.39-5.54,7.91c0.54,0.52,2.78-1.07,3.54-1.68 c6.1-4.83,11.65-10.36,16.51-16.43c1.09-1.36,2.19-2.91,2.07-4.65c-0.03-0.46-0.25-1.01-0.71-1.06c-2.13-0.28-6.45,5.36-7.69,6.65 C50.79,67.63,48.06,70.72,45.47,73.93z" fill="#757575"/>
    <path d="M82.39,62.9c-4.09-6.71-10.34-12.83-16.63-16.26c0,0-0.51,0.11-0.84,0.52 c-0.33,0.41-0.46,0.88-0.46,0.88c6.29,3.31,12.6,9.46,16.6,16.24c0,0,0.37-0.12,0.83-0.57C82.35,63.26,82.39,62.9,82.39,62.9z" fill="#FFC107"/>
    <path d="M79.34,66.15c-4.09-6.61-10.45-12.61-16.65-16.02c0,0-0.34,0.42-0.45,1.2 c-0.1,0.79,0.1,1.29,0.1,1.29c5.49,3.22,10.67,8.01,14.42,13.86c0,0,0.76,0.31,1.4,0.19C78.81,66.55,79.34,66.15,79.34,66.15z" fill="#212121"/>
    <path d="M10.37,122.41c-0.92,0.76-1.1,0.93-1.3,0.8s0.08-0.54,1.37-2.21c1.29-1.67,9.52-10.05,9.52-10.05l0.85,0.71 C20.81,111.66,11.8,121.21,10.37,122.41z"/>
    <circle cx="20.98" cy="110.5" r="1.65"/>
    <path d="M38.04,104.99c-1.38-1.86-3.47-4.43-6.1-6.96c-2.37-2.28-4.71-3.77-6.54-4.7 c-0.39,0.49-0.71,0.9-0.94,1.23c-0.42,0.58-0.35,1.38,0.17,1.87L35,105.91c0.52,0.49,1.32,0.52,1.88,0.07 C37.19,105.72,37.57,105.4,38.04,104.99z" fill="#FFC107"/>
    <path d="M30.08,97.06c1.03,0.92,2.77,3.16,2.1,4.29c-0.41,0.7-1.24,0.33-1.9-0.41 c-0.46-0.51-1.31-1.34-1.81-1.81c-1.19-1.14-3.67-2.32-2.82-3.19C26.64,94.93,29.25,96.31,30.08,97.06z" fill="#FFEE58"/>
    <path d="M14.48,107.11c0.6-1.61,1.58-3.11,2.96-4.13c0.68-0.5,1.5-0.89,2.34-0.82 c0.84,0.07,1.73,0.75,1.68,1.59c-0.1,1.62-1.93,2.84-2.5,3.5c-2.5,2.88-3.2,6.39-5.18,7.27c-0.59,0.26-0.95-0.41-0.64-1.12 C13.89,111.7,13.88,108.72,14.48,107.11z" fill="#A8E3F0"/>
  </g>
  <path d="M78.04,11.01v11.18 c8.28,1.24,14.67,8.81,14.67,17.97v22.06c0,0,1.04,1.72,5.88,1.72c4.85,0,5.22-1.72,5.22-1.72V40.16 C103.81,24.86,92.45,12.27,78.04,11.01z" fill="#84B0C1" stroke="#84B0C1" stroke-width="1.9584" stroke-miterlimit="10"/>
</svg>
